X:2
T:Camp Meeting on the Fourth of July
R:March
Z:Paul Gitlitz
M:C
L:1/8
K:D
DE|:"D"F2FF FEDF|AFBF AFDE|F2DF ABAF|"A"EDEF E2DE|
|:"D"d2de "(Bm)"dcBA |"G"BABc "A"BAFA |"D"d3e "(Bm)"dcBA|"G"BABc "A"B2fe|

